X: 36820
T: Shew Us The Way To Wallington
R: slip jig
M: 9/8
K: Gmajor
|:A2 f ede f3|cAf cAA ABc|B2 d fef g3|dBg dBG ABc:|
|:dBd cAc B3|Acf cAA ABc|dBd cAc B2 G|dBg dBG ABc:|

